X:346
T:
R:polska
S:Ur von Baumgartens samling, Visby.
O:Gotland, Visby
M:3/4
L:1/16
K:C
cdcB c2c'2 g2e2|c2GE F2DB, C4|fede feag fedc|cBcA Bcde cBAG|
cdcB c2c'2 g2e2|c2GE F2DB, C4|fede fefg afed|BGAB c4 C4::
BdBG BGBd gdBG|BdBG BGBd gdBG|gdBG ^FGAB cBce|dcBA G2g2 Lf4|
egec eceg c'gec|egec eceg c'gec|c'gec ecde fefa|gfed d4 c4:|

